X:192
T: DORT SINKET DIE SONNE IM WESTEN
N: B0227
O: Europa, Mitteleuropa, Deutschland
R: Tageszeiten - Lied, Abend
M: 3/8
L: 1/16
K: C
G,2 | C2G,2G,2 | G,3F,E,2 | F,4G,2 | E,4
G,2 | F,3G,F,2 | E,3G,E,2 | D,6- | D,2z2
G,2 | B,3A,G,2 | C2G,2E2 | F6- | F4
E2 | D2D2D2 | G,3A,B,2 | C6- | C2z2

